public/images/click-hand.svg

<?xml version="1.0" encoding="UTF-8" standalone="no"?>
<svg viewBox="0 0 59 59" version="1.1" xmlns="http://www.w3.org/2000/svg" xmlns:xlink="http://www.w3.org/1999/xlink">
    <g id="Page-1" stroke="none" stroke-width="1" fill="none" fill-rule="evenodd">
        <path d="M9.45,7.75 L14.55,14.3 C14.9833333,14.9 15.5666667,15.2333333 16.3,15.3 C17.0333333,15.4 17.6833333,15.2333333 18.25,14.8 L18.3,14.75 C18.8666667,14.2833333 19.2,13.7 19.3,13 C19.4,12.2666667 19.2333333,11.6 18.8,11 L13.7,4.45 C13.2333333,3.88333333 12.65,3.55 11.95,3.45 C11.1833333,3.35 10.5166667,3.53333333 9.95,4 L9.9,4.05 C9.33333333,4.48333333 9.01666667,5.05 8.95,5.75 C8.81666667,6.51666667 8.98333333,7.18333333 9.45,7.75 M8.7,2.45 C9.66666667,1.61666667 10.8333333,1.3 12.2,1.5 L12.25,1.5 C13.45,1.63333333 14.45,2.2 15.25,3.2 L15.3,3.25 L20.4,9.8 L20.45,9.85 C21.1833333,10.8833333 21.4666667,12.0333333 21.3,13.3 C21.1333333,14.4333333 20.6166667,15.4 19.75,16.2 L19.7,16.25 L19.5,16.4 C18.4666667,17.1666667 17.3166667,17.4666667 16.05,17.3 L16.15,17.3 C14.7833333,17.1666667 13.7166667,16.5666667 12.95,15.5 L13,15.55 L7.9,9 L7.9,9.05 C7.06666667,8.05 6.75,6.88333333 6.95,5.55 C7.05,4.35 7.56666667,3.38333333 8.5,2.65 L8.55,2.6 L8.7,2.45 M29.35,1.4 L29.3,1.4 C30.5333333,0.866666667 31.7333333,0.85 32.9,1.35 L33.3,1.55 C34.2666667,2.01666667 34.9833333,2.8 35.45,3.9 L35.5,4 C35.9666667,5.13333333 35.9666667,6.28333333 35.5,7.45 L35.5,7.5 L32.3,15.2 L32.3,15.15 C31.8333333,16.3166667 31,17.1666667 29.8,17.7 L29.75,17.7 C28.5833333,18.1666667 27.4166667,18.1666667 26.25,17.7 L25.85,17.5 C24.8833333,17.0333333 24.1666667,16.2833333 23.7,15.25 L23.65,15.1 C23.1833333,13.9 23.1833333,12.7333333 23.65,11.6 L26.85,3.9 C27.3166667,2.7 28.15,1.86666667 29.35,1.4 M28.7,4.65 L25.5,12.35 C25.2333333,13.0166667 25.2333333,13.7 25.5,14.4 C25.8,15.0666667 26.2833333,15.5333333 26.95,15.8 L27,15.85 C27.6666667,16.1166667 28.3333333,16.1166667 29,15.85 C29.7,15.55 30.1833333,15.0666667 30.45,14.4 L33.65,6.7 C33.9166667,6.03333333 33.9,5.36666667 33.6,4.7 C33.3333333,4 32.8666667,3.51666667 32.2,3.25 L32.15,3.2 L30.1,3.25 C29.4333333,3.51666667 28.9666667,3.98333333 28.7,4.65 M12.95,20.6 L4.65,20.6 C3.91666667,20.6 3.28333333,20.85 2.75,21.35 C2.25,21.8833333 2,22.5166667 2,23.25 L2,23.3 C2,24.0333333 2.25,24.65 2.75,25.15 C3.28333333,25.6833333 3.91666667,25.95 4.65,25.95 L12.95,25.95 C13.6833333,25.95 14.3,25.6833333 14.8,25.15 C15.3333333,24.65 15.6,24.0333333 15.6,23.3 L15.6,23.25 C15.6,22.5166667 15.3333333,21.8833333 14.8,21.35 C14.3,20.85 13.6833333,20.6 12.95,20.6 M17.6,23.25 L17.6,23.3 C17.6,24.5666667 17.15,25.65 16.25,26.55 L16.2,26.6 C15.3,27.5 14.2166667,27.95 12.95,27.95 L4.65,27.95 C3.35,27.95 2.25,27.5 1.35,26.6 C0.45,25.7 0,24.6 0,23.3 L0,23.25 C0,21.9833333 0.433333333,20.9 1.3,20 L1.4,19.9 C2.3,19.0333333 3.38333333,18.6 4.65,18.6 L12.95,18.6 C14.25,18.6 15.35,19.05 16.25,19.95 C17.15,20.85 17.6,21.95 17.6,23.25" id="Shape" fill="#D0A600"></path>
        <path d="M9.45,7.75 C8.98333333,7.18333333 8.81666667,6.51666667 8.95,5.75 C9.01666667,5.05 9.33333333,4.48333333 9.9,4.05 L9.95,4 C10.5166667,3.53333333 11.1833333,3.35 11.95,3.45 C12.65,3.55 13.2333333,3.88333333 13.7,4.45 L18.8,11 C19.2333333,11.6 19.4,12.2666667 19.3,13 C19.2,13.7 18.8666667,14.2833333 18.3,14.75 L18.25,14.8 C17.6833333,15.2333333 17.0333333,15.4 16.3,15.3 C15.5666667,15.2333333 14.9833333,14.9 14.55,14.3 L9.45,7.75 M12.95,20.6 C13.6833333,20.6 14.3,20.85 14.8,21.35 C15.3333333,21.8833333 15.6,22.5166667 15.6,23.25 L15.6,23.3 C15.6,24.0333333 15.3333333,24.65 14.8,25.15 C14.3,25.6833333 13.6833333,25.95 12.95,25.95 L4.65,25.95 C3.91666667,25.95 3.28333333,25.6833333 2.75,25.15 C2.25,24.65 2,24.0333333 2,23.3 L2,23.25 C2,22.5166667 2.25,21.8833333 2.75,21.35 C3.28333333,20.85 3.91666667,20.6 4.65,20.6 L12.95,20.6 M28.7,4.65 C28.9666667,3.98333333 29.4333333,3.51666667 30.1,3.25 L32.15,3.2 L32.2,3.25 C32.8666667,3.51666667 33.3333333,4 33.6,4.7 C33.9,5.36666667 33.9166667,6.03333333 33.65,6.7 L30.45,14.4 C30.1833333,15.0666667 29.7,15.55 29,15.85 C28.3333333,16.1166667 27.6666667,16.1166667 27,15.85 L26.95,15.8 C26.2833333,15.5333333 25.8,15.0666667 25.5,14.4 C25.2333333,13.7 25.2333333,13.0166667 25.5,12.35 L28.7,4.65" id="Shape" fill="#FFCC00"></path>
        <path d="M58.15,43.6 L56.95,46.15 C55.45,48.6166667 53.1166667,50.7666667 49.95,52.6 C46.7833333,54.3666667 43.8166667,55.2833333 41.05,55.35 L41,55.35 C37.5333333,55.5166667 35.2333333,54.5166667 34.1,52.35 L34.1,52.3 L33.55,51.45 L26.15,49.35 C24.35,48.9833333 22.9833333,48.0166667 22.05,46.45 L21.5,45.35 C21.0666667,44.15 21.0333333,42.9166667 21.4,41.65 L21.6,41.15 C21.9666667,39.9833333 22.6333333,39.0166667 23.6,38.25 C23.8,38.05 24.0166667,37.8833333 24.25,37.75 L24.45,37.6 L25.35,37.25 L20.7,29.15 L20.65,29.15 L20.25,28.25 C19.8166667,27.05 19.7833333,25.8166667 20.15,24.55 C20.55,23.15 21.3166667,22.0666667 22.45,21.3 L22.95,20.95 C24.3166667,20.2166667 25.7666667,20.0166667 27.3,20.35 L27.35,20.35 C28.95,20.75 30.1833333,21.6833333 31.05,23.15 L33.25,27 L34.65,26.15 L34.7,26.1 C37.8333333,24.3333333 40.8166667,23.3833333 43.65,23.25 L43.75,23.25 C47.15,23.2166667 49.4166667,24.2666667 50.55,26.4 L57.65,38.65 C58.55,40.0833333 58.7166667,41.7333333 58.15,43.6 M55.25,45.1 C56.55,42.9666667 56.7666667,41.15 55.9,39.65 L48.8,27.4 C47.9333333,25.9333333 46.25,25.2166667 43.75,25.25 C41.1833333,25.3833333 38.4833333,26.25 35.65,27.85 C34.4833333,28.5166667 33.4833333,29.2166667 32.65,29.95 L32.6,29.95 L29.3,24.15 C28.7333333,23.1833333 27.9166667,22.5666667 26.85,22.3 C25.8166667,22.0666667 24.8333333,22.2 23.9,22.7 L23.85,22.8 C22.95,23.3 22.35,24.0666667 22.05,25.1 L21.95,25.7 C21.8166667,26.5333333 21.9666667,27.35 22.4,28.15 L28.7,39.05 C27.5333333,38.75 26.4166667,38.8666667 25.35,39.4 L24.65,40 C24.05,40.5666667 23.6333333,41.2333333 23.4,42 L23.3,42.15 L23.2,42.6 C23.0333333,43.6 23.2166667,44.5333333 23.75,45.4 C24.3833333,46.4666667 25.3,47.1166667 26.5,47.35 L34.8,49.7 L35.8,51.3 C36.6666667,52.8 38.3833333,53.4833333 40.95,53.35 C43.45,53.2833333 46.1166667,52.45 48.95,50.85 C51.7833333,49.2166667 53.8833333,47.3 55.25,45.1" id="Shape" fill="#B8B8B8"></path>
        <path d="M55.25,45.1 C53.8833333,47.3 51.7833333,49.2166667 48.95,50.85 C46.1166667,52.45 43.45,53.2833333 40.95,53.35 C38.3833333,53.4833333 36.6666667,52.8 35.8,51.3 L34.8,49.7 L26.5,47.35 C25.3,47.1166667 24.3833333,46.4666667 23.75,45.4 C23.2166667,44.5333333 23.0333333,43.6 23.2,42.6 L23.3,42.15 L23.4,42 C23.6333333,41.2333333 24.05,40.5666667 24.65,40 L25.35,39.4 C26.4166667,38.8666667 27.5333333,38.75 28.7,39.05 L22.4,28.15 C21.9666667,27.35 21.8166667,26.5333333 21.95,25.7 L22.05,25.1 C22.35,24.0666667 22.95,23.3 23.85,22.8 L23.9,22.7 C24.8333333,22.2 25.8166667,22.0666667 26.85,22.3 C27.9166667,22.5666667 28.7333333,23.1833333 29.3,24.15 L32.6,29.95 L32.65,29.95 C33.4833333,29.2166667 34.4833333,28.5166667 35.65,27.85 C38.4833333,26.25 41.1833333,25.3833333 43.75,25.25 C46.25,25.2166667 47.9333333,25.9333333 48.8,27.4 L55.9,39.65 C56.7666667,41.15 56.55,42.9666667 55.25,45.1" id="Shape" fill="#FFFFFF"></path>
        <path d="M21.5,45.35 L22.05,46.45 C22.9833333,48.0166667 24.35,48.9833333 26.15,49.35 L33.55,51.45 L34.1,52.3 L34.1,52.35 C35.2333333,54.5166667 37.5333333,55.5166667 41,55.35 L41.05,55.35 C43.8166667,55.2833333 46.7833333,54.3666667 49.95,52.6 C53.1166667,50.7666667 55.45,48.6166667 56.95,46.15 L58.15,43.6 C58.85,45.4666667 58.45,47.65 56.95,50.15 C55.45,52.6166667 53.1166667,54.7666667 49.95,56.6 C46.7833333,58.3666667 43.8166667,59.2833333 41.05,59.35 L41,59.35 C37.5333333,59.5166667 35.2333333,58.5166667 34.1,56.35 L34.1,56.3 L33.55,55.45 L26.15,53.35 C24.35,52.9833333 22.9833333,52.0166667 22.05,50.45 C21.15,48.95 20.9333333,47.35 21.4,45.65 L21.5,45.35" id="Shape" fill-opacity="0.101960784" fill="#000000"></path>
    </g>
</svg>

<svg viewBox="0 0 59 59" xmlns="http://www.w3.org/2000/svg"><g fill="none" fill-rule="evenodd"><path d="M9.45 7.75l5.1 6.55c.433.6 1.017.933 1.75 1 .733.1 1.383-.067 1.95-.5l.05-.05c.567-.467.9-1.05 1-1.75.1-.733-.067-1.4-.5-2l-5.1-6.55c-.467-.567-1.05-.9-1.75-1-.767-.1-1.433.083-2 .55l-.05.05c-.567.433-.883 1-.95 1.7-.133.767.033 1.433.5 2m-.75-5.3c.967-.833 2.133-1.15 3.5-.95h.05c1.2.133 2.2.7 3 1.7l.05.05 5.1 6.55.05.05c.733 1.033 1.017 2.183.85 3.45-.167 1.133-.683 2.1-1.55 2.9l-.05.05-.2.15c-1.033.767-2.183 1.067-3.45.9h.1c-1.367-.133-2.433-.733-3.2-1.8l.05.05L7.9 9v.05c-.833-1-1.15-2.167-.95-3.5.1-1.2.617-2.167 1.55-2.9l.05-.05.15-.15M29.35 1.4h-.05c1.233-.533 2.433-.55 3.6-.05l.4.2c.967.467 1.683 1.25 2.15 2.35l.05.1c.467 1.133.467 2.283 0 3.45v.05l-3.2 7.7v-.05c-.467 1.167-1.3 2.017-2.5 2.55h-.05c-1.167.467-2.333.467-3.5 0l-.4-.2c-.967-.467-1.683-1.217-2.15-2.25l-.05-.15c-.467-1.2-.467-2.367 0-3.5l3.2-7.7c.467-1.2 1.3-2.033 2.5-2.5m-.65 3.25l-3.2 7.7c-.267.667-.267 1.35 0 2.05.3.667.783 1.133 1.45 1.4l.05.05c.667.267 1.333.267 2 0 .7-.3 1.183-.783 1.45-1.45l3.2-7.7c.267-.667.25-1.333-.05-2-.267-.7-.733-1.183-1.4-1.45l-.05-.05-2.05.05c-.667.267-1.133.733-1.4 1.4M12.95 20.6h-8.3c-.733 0-1.367.25-1.9.75-.5.533-.75 1.167-.75 1.9v.05c0 .733.25 1.35.75 1.85.533.533 1.167.8 1.9.8h8.3c.733 0 1.35-.267 1.85-.8.533-.5.8-1.117.8-1.85v-.05c0-.733-.267-1.367-.8-1.9-.5-.5-1.117-.75-1.85-.75m4.65 2.65v.05c0 1.267-.45 2.35-1.35 3.25l-.05.05c-.9.9-1.983 1.35-3.25 1.35h-8.3c-1.3 0-2.4-.45-3.3-1.35-.9-.9-1.35-2-1.35-3.3v-.05C0 21.983.433 20.9 1.3 20l.1-.1c.9-.867 1.983-1.3 3.25-1.3h8.3c1.3 0 2.4.45 3.3 1.35.9.9 1.35 2 1.35 3.3" fill="#D0A600"/><path d="M9.45 7.75c-.467-.567-.633-1.233-.5-2 .067-.7.383-1.267.95-1.7L9.95 4c.567-.467 1.233-.65 2-.55.7.1 1.283.433 1.75 1L18.8 11c.433.6.6 1.267.5 2-.1.7-.433 1.283-1 1.75l-.05.05c-.567.433-1.217.6-1.95.5-.733-.067-1.317-.4-1.75-1l-5.1-6.55m3.5 12.85c.733 0 1.35.25 1.85.75.533.533.8 1.167.8 1.9v.05c0 .733-.267 1.35-.8 1.85-.5.533-1.117.8-1.85.8h-8.3c-.733 0-1.367-.267-1.9-.8-.5-.5-.75-1.117-.75-1.85v-.05c0-.733.25-1.367.75-1.9.533-.5 1.167-.75 1.9-.75h8.3M28.7 4.65c.267-.667.733-1.133 1.4-1.4l2.05-.05.05.05c.667.267 1.133.75 1.4 1.45.3.667.317 1.333.05 2l-3.2 7.7c-.267.667-.75 1.15-1.45 1.45-.667.267-1.333.267-2 0l-.05-.05c-.667-.267-1.15-.733-1.45-1.4-.267-.7-.267-1.383 0-2.05l3.2-7.7" fill="#FC0"/><path d="M58.15 43.6l-1.2 2.55c-1.5 2.467-3.833 4.617-7 6.45-3.167 1.767-6.133 2.683-8.9 2.75H41c-3.467.167-5.767-.833-6.9-3v-.05l-.55-.85-7.4-2.1c-1.8-.367-3.167-1.333-4.1-2.9l-.55-1.1c-.433-1.2-.467-2.433-.1-3.7l.2-.5c.367-1.167 1.033-2.133 2-2.9.2-.2.417-.367.65-.5l.2-.15.9-.35-4.65-8.1h-.05l-.4-.9c-.433-1.2-.467-2.433-.1-3.7.4-1.4 1.167-2.483 2.3-3.25l.5-.35c1.367-.733 2.817-.933 4.35-.6h.05c1.6.4 2.833 1.333 3.7 2.8l2.2 3.85 1.4-.85.05-.05c3.133-1.767 6.117-2.717 8.95-2.85h.1c3.4-.033 5.667 1.017 6.8 3.15l7.1 12.25c.9 1.433 1.067 3.083.5 4.95m-2.9 1.5c1.3-2.133 1.517-3.95.65-5.45L48.8 27.4c-.867-1.467-2.55-2.183-5.05-2.15-2.567.133-5.267 1-8.1 2.6-1.167.667-2.167 1.367-3 2.1h-.05l-3.3-5.8c-.567-.967-1.383-1.583-2.45-1.85-1.033-.233-2.017-.1-2.95.4l-.05.1c-.9.5-1.5 1.267-1.8 2.3l-.1.6c-.133.833.017 1.65.45 2.45l6.3 10.9c-1.167-.3-2.283-.183-3.35.35l-.7.6c-.6.567-1.017 1.233-1.25 2l-.1.15-.1.45c-.167 1 .017 1.933.55 2.8.633 1.067 1.55 1.717 2.75 1.95l8.3 2.35 1 1.6c.867 1.5 2.583 2.183 5.15 2.05 2.5-.067 5.167-.9 8-2.5 2.833-1.633 4.933-3.55 6.3-5.75" fill="#B8B8B8"/><path d="M55.25 45.1c-1.367 2.2-3.467 4.117-6.3 5.75-2.833 1.6-5.5 2.433-8 2.5-2.567.133-4.283-.55-5.15-2.05l-1-1.6-8.3-2.35c-1.2-.233-2.117-.883-2.75-1.95-.533-.867-.717-1.8-.55-2.8l.1-.45.1-.15c.233-.767.65-1.433 1.25-2l.7-.6c1.067-.533 2.183-.65 3.35-.35l-6.3-10.9c-.433-.8-.583-1.617-.45-2.45l.1-.6c.3-1.033.9-1.8 1.8-2.3l.05-.1c.933-.5 1.917-.633 2.95-.4 1.067.267 1.883.883 2.45 1.85l3.3 5.8h.05c.833-.733 1.833-1.433 3-2.1 2.833-1.6 5.533-2.467 8.1-2.6 2.5-.033 4.183.683 5.05 2.15l7.1 12.25c.867 1.5.65 3.317-.65 5.45" fill="#FFF"/><path d="M21.5 45.35l.55 1.1c.933 1.567 2.3 2.533 4.1 2.9l7.4 2.1.55.85v.05c1.133 2.167 3.433 3.167 6.9 3h.05c2.767-.067 5.733-.983 8.9-2.75 3.167-1.833 5.5-3.983 7-6.45l1.2-2.55c.7 1.867.3 4.05-1.2 6.55-1.5 2.467-3.833 4.617-7 6.45-3.167 1.767-6.133 2.683-8.9 2.75H41c-3.467.167-5.767-.833-6.9-3v-.05l-.55-.85-7.4-2.1c-1.8-.367-3.167-1.333-4.1-2.9-.9-1.5-1.117-3.1-.65-4.8l.1-.3" fill-opacity=".102" fill="#000"/></g></svg>
